render/icons/deepseek.svg

<svg width="40" height="40" viewBox="0 0 40 40" fill="none" xmlns="http://www.w3.org/2000/svg">
<rect width="40" height="40" rx="8" fill="white"/>
<g clip-path="url(#clip0_2130_22530)">
<path d="M35.6639 9.97616C35.3253 9.81083 35.1786 10.1268 34.9813 10.2882C34.9133 10.3402 34.8559 10.4082 34.7986 10.4695C34.3026 10.9988 33.7239 11.3455 32.9679 11.3042C31.8626 11.2428 30.9186 11.5895 30.0839 12.4348C29.9066 11.3922 29.3173 10.7708 28.4213 10.3708C27.9519 10.1628 27.4773 9.95616 27.1479 9.50416C26.9186 9.18283 26.8559 8.82416 26.7413 8.47216C26.6679 8.25883 26.5946 8.0415 26.3506 8.0055C26.0839 7.96416 25.9799 8.18683 25.8759 8.3735C25.4586 9.13616 25.2973 9.97616 25.3133 10.8268C25.3493 12.7415 26.1573 14.2668 27.7639 15.3508C27.9466 15.4748 27.9933 15.6002 27.9359 15.7815C27.8266 16.1548 27.6959 16.5175 27.5813 16.8922C27.5079 17.1308 27.3986 17.1815 27.1426 17.0788C26.2776 16.7071 25.4919 16.173 24.8279 15.5055C23.6853 14.4015 22.6533 13.1828 21.3653 12.2282C21.0668 12.0077 20.7604 11.7982 20.4466 11.6002C19.1333 10.3242 20.6199 9.27616 20.9639 9.15216C21.3239 9.0215 21.0879 8.57616 19.9253 8.5815C18.7626 8.58683 17.6986 8.97483 16.3426 9.4935C16.1411 9.57071 15.9338 9.63179 15.7226 9.67616C14.4554 9.43741 13.1595 9.39156 11.8786 9.54016C9.36527 9.82016 7.3586 11.0095 5.8826 13.0375C4.10927 15.4748 3.69193 18.2455 4.2026 21.1335C4.73993 24.1788 6.2946 26.7002 8.6826 28.6708C11.1599 30.7148 14.0119 31.7162 17.2666 31.5242C19.2426 31.4108 21.4439 31.1455 23.9253 29.0442C24.5519 29.3562 25.2079 29.4802 26.2986 29.5735C27.1386 29.6522 27.9466 29.5335 28.5719 29.4028C29.5519 29.1948 29.4839 28.2868 29.1306 28.1215C26.2573 26.7828 26.8879 27.3282 26.3133 26.8868C27.7746 25.1588 29.9746 23.3642 30.8359 17.5495C30.9026 17.0868 30.8453 16.7962 30.8359 16.4228C30.8306 16.1962 30.8826 16.1068 31.1426 16.0815C31.864 16.0067 32.5638 15.7915 33.2026 15.4482C35.0639 14.4308 35.8159 12.7615 35.9933 10.7588C36.0199 10.4522 35.9879 10.1375 35.6639 9.97616ZM19.4413 28.0002C16.6559 25.8108 15.3053 25.0895 14.7479 25.1202C14.2253 25.1522 14.3199 25.7482 14.4346 26.1375C14.5546 26.5215 14.7106 26.7855 14.9293 27.1228C15.0813 27.3455 15.1853 27.6775 14.7786 27.9268C13.8813 28.4815 12.3226 27.7402 12.2493 27.7042C10.4346 26.6348 8.91593 25.2242 7.84793 23.2948C6.81593 21.4375 6.21593 19.4455 6.11727 17.3188C6.0906 16.8042 6.24127 16.6228 6.75327 16.5295C7.42541 16.4009 8.1141 16.3833 8.79193 16.4775C11.6346 16.8935 14.0533 18.1642 16.0826 20.1762C17.2399 21.3228 18.1159 22.6922 19.0186 24.0308C19.9786 25.4522 21.0106 26.8068 22.3253 27.9162C22.7893 28.3055 23.1586 28.6015 23.5133 28.8188C22.4439 28.9388 20.6599 28.9655 19.4413 28.0002ZM20.7746 19.4135C20.7744 19.3473 20.7903 19.282 20.8209 19.2233C20.8516 19.1645 20.8961 19.1142 20.9505 19.0765C21.005 19.0388 21.0678 19.015 21.1336 19.007C21.1993 18.9991 21.266 19.0072 21.3279 19.0308C21.4068 19.0591 21.4749 19.1113 21.5227 19.1802C21.5705 19.249 21.5956 19.331 21.5946 19.4148C21.5948 19.469 21.5842 19.5226 21.5634 19.5726C21.5427 19.6226 21.5122 19.668 21.4737 19.7061C21.4352 19.7442 21.3896 19.7743 21.3393 19.7945C21.2891 19.8148 21.2354 19.8249 21.1813 19.8242C21.1275 19.8243 21.0743 19.8138 21.0247 19.7932C20.9751 19.7725 20.9301 19.7422 20.8923 19.704C20.8546 19.6657 20.8249 19.6203 20.8049 19.5705C20.7849 19.5206 20.7737 19.4672 20.7746 19.4135ZM24.9213 21.5415C24.6546 21.6495 24.3893 21.7428 24.1346 21.7548C23.7515 21.7682 23.3755 21.6485 23.0706 21.4162C22.7053 21.1095 22.4439 20.9388 22.3346 20.4055C22.2969 20.1449 22.3041 19.8797 22.3559 19.6215C22.4493 19.1855 22.3453 18.9055 22.0373 18.6522C21.7879 18.4442 21.4693 18.3868 21.1199 18.3868C21.0003 18.3799 20.8842 18.3442 20.7813 18.2828C20.6346 18.2108 20.5146 18.0295 20.6293 17.8055C20.6666 17.7335 20.8426 17.5575 20.8853 17.5255C21.3599 17.2562 21.9079 17.3442 22.4133 17.5468C22.8826 17.7388 23.2373 18.0908 23.7479 18.5895C24.2693 19.1908 24.3639 19.3575 24.6613 19.8082C24.8959 20.1615 25.1093 20.5242 25.2546 20.9388C25.3439 21.1988 25.2293 21.4108 24.9213 21.5415Z" fill="#4D6BFE"/>
</g>
<defs>
<clipPath id="clip0_2130_22530">
<rect width="32" height="32" fill="white" transform="translate(4 4)"/>
</clipPath>
</defs>
</svg>

<svg xmlns="http://www.w3.org/2000/svg" width="40" height="40" fill="none">
  <rect width="40" height="40" fill="#fff" rx="8"/>
  <g clip-path="url(#a)">
    <path fill="#4D6BFE" d="M35.664 9.976c-.339-.165-.485.15-.683.312-.068.052-.125.12-.182.181-.496.53-1.075.877-1.831.835-1.105-.061-2.05.285-2.884 1.13-.177-1.042-.767-1.663-1.663-2.063-.47-.208-.944-.415-1.273-.867-.23-.321-.292-.68-.407-1.032-.073-.213-.146-.43-.39-.466-.267-.042-.371.18-.475.367-.417.763-.579 1.603-.563 2.454.036 1.915.844 3.44 2.45 4.524.184.124.23.25.173.43-.11.374-.24.736-.355 1.111-.073.239-.182.29-.438.187a7.368 7.368 0 0 1-2.315-1.574c-1.143-1.104-2.175-2.322-3.463-3.277-.298-.22-.605-.43-.918-.628-1.314-1.276.173-2.324.517-2.448.36-.13.124-.576-1.039-.57-1.162.005-2.226.393-3.582.911a4.073 4.073 0 0 1-.62.183 12.796 12.796 0 0 0-3.844-.136c-2.514.28-4.52 1.47-5.996 3.498-1.774 2.437-2.191 5.207-1.68 8.096.537 3.045 2.092 5.566 4.48 7.537 2.477 2.044 5.329 3.045 8.584 2.853 1.976-.113 4.177-.379 6.658-2.48.627.312 1.283.436 2.374.53.84.078 1.648-.04 2.273-.171.98-.208.912-1.116.559-1.281-2.874-1.34-2.243-.794-2.818-1.235 1.462-1.728 3.662-3.523 4.523-9.338.067-.462.01-.753 0-1.126-.005-.227.047-.316.307-.341a5.564 5.564 0 0 0 2.06-.634c1.86-1.017 2.613-2.687 2.79-4.69.027-.306-.005-.62-.33-.782ZM19.44 28c-2.785-2.19-4.136-2.91-4.693-2.88-.523.032-.428.628-.313 1.017.12.384.276.648.494.986.152.223.256.554-.15.804-.898.555-2.456-.187-2.53-.223-1.814-1.07-3.333-2.48-4.401-4.41-1.032-1.857-1.632-3.849-1.73-5.975-.027-.515.123-.696.635-.79a6.262 6.262 0 0 1 2.039-.052c2.843.416 5.261 1.687 7.29 3.7 1.158 1.146 2.034 2.515 2.937 3.854.96 1.421 1.992 2.776 3.306 3.885.464.39.834.686 1.188.903-1.07.12-2.853.146-4.072-.819Zm1.334-8.587a.409.409 0 0 1 .553-.382.402.402 0 0 1 .267.384.407.407 0 0 1-.414.41.406.406 0 0 1-.406-.412Zm4.146 2.128c-.266.108-.532.202-.786.214a1.66 1.66 0 0 1-1.064-.339c-.366-.306-.627-.477-.736-1.01a2.345 2.345 0 0 1 .02-.784c.094-.436-.01-.716-.318-.97-.25-.208-.568-.265-.917-.265a.744.744 0 0 1-.339-.104.337.337 0 0 1-.152-.478 1.55 1.55 0 0 1 .256-.28c.475-.269 1.023-.18 1.528.022.47.192.824.544 1.335 1.043.521.6.616.768.913 1.218.235.354.448.716.594 1.13.089.26-.026.473-.334.604Z"/>
  </g>
  <defs>
    <clipPath id="a">
      <path fill="#fff" d="M4 4h32v32H4z"/>
    </clipPath>
  </defs>
</svg>
